X:336
T: EIN SACKPFEIFER MIT SEINER LYR
N: E0955
O: Europa, Mitteleuropa, Deutschland
R: Tanz - Lied, Reigen, Bauern - Lied
M: 4/4
L: 1/16
K: F
C4 | F4G4A4B4 | A4G4F8 | z4
C4F4G4 | A4B4A4G4 | F8z4
c3B | ABcBABcBA2G2A2G2 | A4F4
c4c4 | F3GA2B2c2d2c4 |
A3Ac4c3cF4
G3Gd4B2d2c4 | A8z4

@@@ Tune index: 4649
